assets/images/person-dark.svg

<svg fill="none" height="15" viewBox="0 0 16 15" width="16" xmlns="http://www.w3.org/2000/svg" xmlns:xlink="http://www.w3.org/1999/xlink"><clipPath id="a"><path d="m.003174 0h15v15h-15z"/></clipPath><g clip-path="url(#a)"><path d="m14.9941 14.621c-.281-1.242-1.887-1.848-2.442-2.043-.6703-.1688-1.3497-.2994-2.035-.391-.3454-.0624-.6692-.2118-.94095-.434-.09605-.6373-.11686-1.2838-.06201-1.92597.17149-.2699.32033-.55355.445-.84801.14346-.48515.25306-.97967.32796-1.48 0 0 .32 0 .434-.562.1491-.42301.2461-.86257.289-1.309-.023-.449-.27-.437-.27-.437.187-.64987.2766-1.32385.266-2-.088-.86703-.4947-1.67053-1.14136-2.254817-.64662-.584284-1.4871-.9077606-2.35859-.9077606-.8715 0-1.71198.3234766-2.3586.9077606-.64662.584287-1.05336 1.387787-1.1414 2.254817-.00771.67571.0805 1.34909.262 2 0 0-.24601-.012-.27001.438.04294.44643.13998.886.289 1.30901.109.563.434.56299.434.56299.07496.50033.18456.99485.328 1.48001.12471.29445.27355.57808.445.848.05453.64227.03338 1.28867-.063 1.92597-.27175.2222-.59558.3716-.94099.434-.68521.0916-1.36465.2221-2.03501.391-.555.2-2.159998.8-2.4419985 2.043-.01010298.046-.00968655.0936.0012055.1393.010892.0458.031983.0885.0616989.1249.0297161.0365.0672851.0657.1099011.0856.042617.0199.089178.0299.1362.0292h14.371953c.0465-.0006.0923-.0116.1339-.0322.0417-.0206.0783-.0502.107-.0867.0288-.0366.049-.079.0592-.1244.0103-.0453.0102-.0923-.0001-.1377z" fill="#000"/></g></svg>

<svg width="16" height="15" viewBox="0 0 16 15" fill="none" xmlns="http://www.w3.org/2000/svg">
<g clip-path="url(#clip0)">
<path d="M14.9941 14.621C14.7131 13.379 13.1071 12.773 12.5521 12.578C11.8818 12.4092 11.2024 12.2786 10.5171 12.187C10.1717 12.1246 9.8479 11.9752 9.57615 11.753C9.4801 11.1157 9.45929 10.4692 9.51414 9.82703C9.68563 9.55713 9.83447 9.27348 9.95914 8.97902C10.1026 8.49387 10.2122 7.99935 10.2871 7.49902C10.2871 7.49902 10.6071 7.49902 10.7211 6.93702C10.8702 6.51401 10.9672 6.07445 11.0101 5.62802C10.9871 5.17902 10.7401 5.19102 10.7401 5.19102C10.9271 4.54115 11.0167 3.86717 11.0061 3.19102C10.9181 2.32399 10.5114 1.52049 9.86474 0.936203C9.21812 0.351919 8.37764 0.0284424 7.50615 0.0284424C6.63465 0.0284424 5.79417 0.351919 5.14755 0.936203C4.50093 1.52049 4.09419 2.32399 4.00615 3.19102C3.99844 3.86673 4.08665 4.54011 4.26815 5.19102C4.26815 5.19102 4.02214 5.17902 3.99814 5.62902C4.04108 6.07545 4.13812 6.51502 4.28714 6.93803C4.39614 7.50103 4.72114 7.50102 4.72114 7.50102C4.7961 8.00135 4.9057 8.49587 5.04914 8.98103C5.17385 9.27548 5.32269 9.55911 5.49414 9.82903C5.54867 10.4713 5.52752 11.1177 5.43114 11.755C5.15939 11.9772 4.83556 12.1266 4.49015 12.189C3.80494 12.2806 3.1255 12.4111 2.45514 12.58C1.90014 12.78 0.295142 13.38 0.0131415 14.623C0.00303852 14.669 0.00345495 14.7166 0.014347 14.7623C0.025239 14.8081 0.04633 14.8508 0.0760459 14.8872C0.105762 14.9237 0.143331 14.9529 0.185947 14.9728C0.228564 14.9927 0.275125 15.0027 0.322147 15.002H14.6941C14.7406 15.0014 14.7864 14.9904 14.828 14.9698C14.8697 14.9492 14.9063 14.9196 14.935 14.8831C14.9638 14.8465 14.984 14.8041 14.9942 14.7587C15.0045 14.7134 15.0044 14.6664 14.9941 14.621Z" fill="black"/>
</g>
<defs>
<clipPath id="clip0">
<rect width="15" height="15" fill="white" transform="translate(0.00317383)"/>
</clipPath>
</defs>
</svg>
